X:1
T:Title
%%score { ( 1 2 3 ) | ( 4 5 6 ) }
L:1/8
Q:1/4=120
M:4/4
K:E
V:1 treble nm="Grand Piano"
V:2 treble 
V:3 treble 
V:4 bass 
V:5 bass 
V:6 bass 
V:1
 G4 z4 | [CEF]2 .[B,DB]2 [G,E]4 | [CG]2 [C^E^A]2 [B,GB]2 [Gd]2 | G2 z2 z4 | %4
w: Sir~J.~Stainer||||
 [DGB]3 [DGB] [EGc]2 [DGB]2 | [G^A]2 [^Ed]2 B4 | B2 c2 d2 [Ff]2 | [Ec]4 [DB]4 | e2 d2 c2 B2 | %9
w: |||||
 A2 [Fc]2 B2 z2 | [B,EG]2 [^B,F]2 [CE]2 [CFA]2 | [B,EG]4 [B,DF]4 | B2 G2 z2 z G | z2 F2 z4 | %14
w: |||||
 z2 G2 z4 | [A,CF]2 [G,E]2 [B,DF]4 | e3 d B2 c2 | G2 A2 B2 c2 | [Ad]2 [Ge]2 .[B,FB]2 [B,EG]2 | %19
w: |||||
 [EG]2 z2 z4 |] %20
w: |
V:2
 z2 z G [A,EA]2 [B,EG]2 | x8 | x8 | c2- [F,^A,Fc]2 [B,DB]4 | x8 | x8 | x8 | x8 | x8 | z4 F4 | x8 | %11
 x8 | z4 F4 | A2 z B, E2 F2 | G2 z B, .[B,FB]2 [B,EG]2 | x8 | x8 | x8 | x8 | B,2- [B,DF]2 [G,E]4 |] %20
V:3
 z2 E2 z4 | x8 | x8 | x8 | x8 | x8 | x8 | x8 | x8 | x8 | x8 | x8 | z4 z2 B,2 | x8 | x8 | x8 | x8 | %17
 x8 | x8 | x8 |] %20
V:4
 [E,B,E]2 [D,B,]2 C,2 B,,2 | A,,2 z A, C,4 | E,2 D,2 G,2 [F,B,]2 | [E,B,]2 z E B,,4 | %4
 G,3 G, C,2 G,2 | [D,D]2 [D,D]2[K:treble] [G,DG]4 | [G,B,D]2 [F,^A,F]2 [B,F]2[K:bass] [D,B,]2 | %7
 [F,^A,]4 [B,,B,]4 | [G,B,E]2 [G,^B,F]2 [A,CE]2 [G,C^E]2 | [F,CF]2[K:bass] [E,A,]2 z2 A2 | %10
 E,2 D,2 C,2 A,,2 | B,,4 B,,4 | G2 E2 [B,D]2 z E | z2 D2[K:bass] z4 | z2 E2 z4 | A,,2 C,2 C,4 | %16
 [CEc]3 [B,DB] [G,B,G]2 [A,CA]2 | [E,G,E]2 [F,A,F]2[K:treble] [G,B,G]2 [A,CA]2 | %18
 [F,B,]2 [E,B,]2 z A E,2 | B,,2 z A, E,4 |] %20
V:5
 x8 | z2 B,,2 z4 | x8 | x8 | x8 | x4[K:treble] x4 | x6[K:bass] x2 | x8 | x8 | z4[K:bass] [D,F,]4 | %10
 x8 | x8 | z4 z2 G,2 | F2 z[K:bass] G, [A,C]2 [F,A,D]2 | E2 z E, z A E,2 | x8 | x8 | %17
 x4[K:treble] x4 | z4 D,2 z2 | z2 B,,2 z4 |] %20
V:6
 x8 | x8 | x8 | x8 | x8 | x4[K:treble] x4 | x6[K:bass] x2 | x8 | x8 | x2[K:bass] x6 | x8 | x8 | %12
 x8 | [F,A,]4[K:bass] z4 | [E,B,]4 D,2 z2 | x8 | x8 | x4[K:treble] x4 | x8 | x8 |] %20

